!!!!SEGMENT: pl-cz--iii-257--009_gotschalk-filip--requiem-in-b-osanna.krn
!!!cenid: 18xx:111
!!!COM: Gotschalk, Filip
!!!COM-rismid: pe30020320
!!!CDT: 1760-1809
!!!CNT:
!!!OPR: Requiem in B
!!!OTL: Osanna
!!!OMV: 009
!!!PDT:
!!!AGN: Sacred; Requiem
!!!SMS-siglum: PL-CZ
!!!SMS-shelfmark: III-257
!!!SMS-shelfwork: 001-009 M
!!!NIFC-rismid:
!!!URL-scan: http://repozytorium.nifc.pl/skany/pl-cz-nut--iii-256
!!!ONB-nifc:
**kern	**fb	**kern	**text	**kern	**text	**kern	**text	**kern	**text	**kern	**kern	**kern	**kern	**kern	**kern
*part11	*	*part10	*part10	*part9	*part9	*part8	*part8	*part7	*part7	*part6	*part5	*part4	*part3	*part2	*part1
*staff11	*	*staff10	*staff10	*staff9	*staff9	*staff8	*staff8	*staff7	*staff7	*staff6	*staff5	*staff4	*staff3	*staff2	*staff1
*Iorgan	*	*Ibass	*	*Itenor	*	*Ialto	*	*Ivox	*	*Ivioln	*Ivioln	*Iempty	*Iempty	*Iclars	*Iclars
*I"Organo	*	*I"Basso	*	*I"Tenore	*	*I"Alto	*	*I"Canto	*	*I"Violino Secondo	*I"Violino Primo	*I"Cornu II in B	*I"Cornu Primo in B	*I"Clarinetto Secondo	*I"Clarinetto Primo
*I'Org	*	*I'B	*	*I'T	*	*I'A	*	*I'C	*	*I'Vln II	*I'Vln I	*I'Cor II	*I'Cor I	*I'Cl II	*I'Cl I
*clefF4	*	*clefF4	*	*clefC4	*	*clefC3	*	*clefC1	*	*clefG2	*clefG2	*clefG2	*clefG2	*clefG2	*clefG2
*	*	*	*	*	*	*	*	*	*	*	*	*ITrd1c2	*ITrd1c2	*	*
*k[b-e-]	*	*k[b-e-]	*	*k[b-e-]	*	*k[b-e-]	*	*k[b-e-]	*	*k[b-e-]	*k[b-e-]	*k[b-e-]	*k[b-e-]	*k[b-e-]	*k[b-e-]
*B-:	*	*B-:	*	*B-:	*	*B-:	*	*B-:	*	*B-:	*B-:	*	*	*B-:	*B-:
*M4/4	*	*M4/4	*	*M4/4	*	*M4/4	*	*M4/4	*	*M4/4	*M4/4	*M4/4	*M4/4	*M4/4	*M4/4
*met(c)	*	*met(c)	*	*met(c)	*	*met(c)	*	*met(c)	*	*met(c)	*met(c)	*met(c)	*met(c)	*met(c)	*met(c)
=1	=1	=1	=1	=1	=1	=1	=1	=1	=1	=1	=1	=1	=1	=1	=1
!!LO:TX:a:t=problem:laseczki ósemek i ćwierćnut zamiennie z prawej i lewej strony
!	!	!	!	!	!	!	!	!	!	!	!	!	!	!	!LO:TX:a:B:t=Moderato
4BB-	.	1r	.	1r	.	1r	.	8r	.	1r	8r	2r	2r	2r	2r
.	.	.	.	.	.	.	.	8b-	O-	.	8b-L	.	.	.	.
8r	.	.	.	.	.	.	.	8b-	-san-	.	8b-	.	.	.	.
8BB-	.	.	.	.	.	.	.	8b-	-na	.	8b-J	.	.	.	.
4F	.	.	.	.	.	.	.	8a	in	.	8aL\	4r	4r	4r	8aL
.	.	.	.	.	.	.	.	8b-	ex-	.	8b-J	.	.	.	8b-J
8r	.	.	.	.	.	.	.	8ccL	-cel-	.	8ccL	8fL	8ccL	8e-L	8ccL
8F	5 7	.	.	.	.	.	.	16ddL	.	.	16ddL	8fJ	16ddL	16fL	16ddL
.	.	.	.	.	.	.	.	16ccJJ	.	.	16ccJJ	.	16ccJJ	16e-JJ	16ccJJ
=2	=2	=2	=2	=2	=2	=2	=2	=2	=2	=2	=2	=2	=2	=2	=2
4B-	.	1r	.	1r	.	8r	.	8b-	-sis	8r	8b-L	4d	4b-	4e-	4b-/
.	.	.	.	.	.	8b-	O-	8dd	o-	8b-L	8dd	.	.	.	.
8r	.	.	.	.	.	8b-	-san-	8dd	-san-	8b-	8dd	4r	4r	4r	4r
8B-	.	.	.	.	.	8b-	-na	8dd	-na	8b-J	8ddJ	.	.	.	.
4F	.	.	.	.	.	8a	in	8cc	in	8aL\	8ccL	4r	4r	8aL\	8ccL
.	.	.	.	.	.	8b-	ex-	8dd	ex-	8b-J	8ddJ	.	.	8b-J	8ddJ
!	!	!	!	!	!	!	!	!LO:LB:g=original	!	!	!	!	!	!	!
8r	.	.	.	.	.	8ccL	-cel-	8ee-L	-cel-	8ccL	8ee-L	8ccL	8ee-L	8ccL	8ee-L
8F	7	.	.	.	.	8aJ	.	16ffL	.	16ddL	16ffL	16ddL	16ffL	16ddL	16ffL
.	.	.	.	.	.	.	.	16ee-JJ	.	16ccJJ	16ee-JJ	16ccJJ	16ee-JJ	16ccJJ	16ee-JJ
!LO:LB:g=original	!	!	!	!	!	!LO:LB:g=original	!	!	!	!	!	!	!	!	!
=3	=3	=3	=3	=3	=3	=3	=3	=3	=3	=3	=3	=3	=3	=3	=3
*2\right	*	*	*	*	*	*	*	*	*	*	*	*	*	*	*
*tremolo	*	*	*	*	*	*	*	*	*	*	*	*	*	*	*
8B-L	.	8r	.	8r	.	8b-	-sis	8dd	-sis	8b-L\	8ddL	4b-	4dd	4b-	4dd
8B-	.	8B-	O-	8d	O-	8b-	O-	8ff	o-	8f/	8ff	.	.	.	.
!	!	!	!	!	!	!	!	!	!	!LO:TX:a:t=SIC:s= 8.b-	!	!	!	!	!
8B-	.	8B-	-san-	8d	-san-	8b-	-san-	8ff	-san-	8f 8a/	8ff	4r	4r	4r	4r
!	!	!	!	!	!	!	!	!	!	!LO:TX:a:t=SIC:s= 8.b-	!	!	!	!	!
8B-J	.	8B-	-na	8d	-na	8b-	-na	8ff	-na	8fJ 8a/	8ffJ	.	.	.	.
*Xtremolo	*	*	*	*	*	*	*	*	*	*	*	*	*	*2\right	*
4B-	4| 2	4B-	in	4c	in	4b-	in	4een	in	4b-\	4een	2r	2r	2cc	(>4een
4A	6	4A	ex-	4c	ex-	4a	ex-	4ff	ex-	4a\	4ff	.	.	.	4ff)
!	!	!	!	!	!	!	!	!	!	!LO:LB:g=original	!LO:LB:g=original	!	!	!	!
=4	=4	=4	=4	=4	=4	=4	=4	=4	=4	=4	=4	=4	=4	=4	=4
*	*	*	*	*2\right	*	*2\right	*	*	*	*	*	*	*	*	*
4B-	6 5	(>4B-	-cel-	2c	-cel-	2g	-cel-	(>4ff	-cel-	2g 2b-	4ff	1r	1r	(>4b-	(>4ff
4c	n	4c)	.	.	.	.	.	4een)	.	.	4een	.	.	4cc	4een)
4F	.	8F	-sis	4c	-sis	4a	-sis.	4ff	-sis	4f 4a	4ff	.	.	4a)	4ff
.	.	8F	o-	.	.	.	.	.	.	.	.	.	.	.	.
8r	.	8F	-san-	4r	.	4r	.	4r	.	4r	4r	.	.	4r	4r
8F	.	8F	-na	.	.	.	.	.	.	.	.	.	.	.	.
=5	=5	=5	=5	=5	=5	=5	=5	=5	=5	=5	=5	=5	=5	=5	=5
4c	n	8En	in	2r	.	1r	.	1r	.	1r	1r	1r	1r	1r	1r
.	.	8F	ex-	.	.	.	.	.	.	.	.	.	.	.	.
!	!	!LO:LB:g=original	!	!	!	!	!	!	!	!	!	!	!	!	!
8r	.	8GL	-cel-	.	.	.	.	.	.	.	.	.	.	.	.
8C	n	16AL	.	.	.	.	.	.	.	.	.	.	.	.	.
.	.	16GJJ	.	.	.	.	.	.	.	.	.	.	.	.	.
4F	.	8F	-sis	8r	.	.	.	.	.	.	.	.	.	.	.
.	.	8A	o-	8F	o-	.	.	.	.	.	.	.	.	.	.
8r	.	8A	-san-	8F	-san-	.	.	.	.	.	.	.	.	.	.
8F	.	8A	-na	8F	-na	.	.	.	.	.	.	.	.	.	.
!	!	!	!	!LO:LB:g=original	!	!	!	!	!	!	!	!	!	!	!
=6	=6	=6	=6	=6	=6	=6	=6	=6	=6	=6	=6	=6	=6	=6	=6
4c	n_	8G	in	8En	in	2r	.	2r	.	2r	2r	1r	1r	1r	1r
.	.	8A	ex-	8F	ex-	.	.	.	.	.	.	.	.	.	.
8r	.	8B-L	-cel-	8GL	-cel-	.	.	.	.	.	.	.	.	.	.
8C	x	16cL	.	16AL	.	.	.	.	.	.	.	.	.	.	.
.	.	16B-JJ	.	16GJJ	.	.	.	.	.	.	.	.	.	.	.
4F	.	8A	-sis	8F	-sis	8r	.	8r	.	8r	8r	.	.	.	.
.	.	8F	o-	8c	o-	8a	O-	8ff	O-	8aL	8ffL	.	.	.	.
8r	.	8F	-san-	8c	-san-	8a	-san-	8ff	-san-	8a	8ff	.	.	.	.
8F	.	8F	-na	8c	-na	8a	-na	8ff	-na	8aJ	8ffJ	.	.	.	.
!	!	!	!	!	!	!LO:LB:g=original	!	!LO:LB:g=original	!	!	!	!LO:LB:g=original	!LO:LB:g=original	!LO:LB:g=original	!LO:LB:g=original
=7	=7	=7	=7	=7	=7	=7	=7	=7	=7	=7	=7	=7	=7	=7	=7
2G	7 3	4G	in	4B-	in	4b-	in	4ff	in	2b-/	4ff	2r	2r	2b-	(>4ff
.	6n	4G	ex-	4B-	ex-	4b-	ex-	4een	ex-	.	4een	.	.	.	4een)
!	!	!LO:LB:g=original	!	!	!	!	!	!	!	!	!	!	!	!	!
4A	6 5	4A	-cel-	4c	-cel-	4f	-cel-	4ee-X	-cel-	4cc	4ee-X	4cc	4ee-	(>4cc	(>4ee-X
4B-	.	4B-	-sis	4B-	-sis	4f	-sis	4dd	-sis	4f	4dd	4b-	4dd	4b-)	4dd)
!LO:LB:g=original	!	!	!	!	!	!	!	!	!	!	!	!	!	!	!
=8	=8	=8	=8	=8	=8	=8	=8	=8	=8	=8	=8	=8	=8	=8	=8
*	*	*	*	*	*	*	*	*	*	*2\right	*	*	*	*	*
(>2G	7 3_	4G	in	4B-	in	4b-	in	4ff	in	2b-	4ff	2r	2r	2b-	(>4ff
.	6n	4G	ex-	4B-	ex-	4b-	ex-	4een	ex-	.	4een	.	.	.	4een)
4A)	6 5n	4A	-cel-	4c	-cel-	4f	-cel-	4ee-X	-cel-	4cc	4ee-X	4cc	4ee-	(>4cc	(>4ee-X
4B-	.	4B-	-sis	4B-	-sis	4f	-sis	4dd	-sis	4f	4dd	4b-	4dd	4b-)	4dd)
!	!	!	!	!LO:LB:g=original	!	!	!	!	!	!	!LO:L:g=original	!	!	!	!
=9	=9	=9	=9	=9	=9	=9	=9	=9	=9	=9	=9	=9	=9	=9	=9
*	*	*2\right	*	*	*	*	*	*2\right	*	*	*2\right	*	*	*	*2\right
2En	67	2En	in	2B-	in	2g	in	2dd-X	in	2b-	(>2dd-X	1r	1r	2b-/	2dd-X
2E	65	2E	ex-	(>4c	ex-	2g	ex-	(>4cc	ex-	2g\	4cc	.	.	2g	4cc
.	.	.	.	4B-)	.	.	.	4b-)	.	.	4b-)	.	.	.	4b-
!	!	!	!	!	!	!	!	!	!	!LO:LB:g=original	!	!	!	!	!
=10	=10	=10	=10	=10	=10	=10	=10	=10	=10	=10	=10	=10	=10	=10	=10
4E-X	4 2	4E-X	-cel-	(>4c	-cel-	1f	-cel-	4a	-cel-	2.f	4a\	4r	4r	4cc	4aa
*	*	*	*	*	*	*	*	*	*	*	*	*	*2\right	*	*
4D	6	4D	.	2d	.	.	.	2b-	.	.	2b-	4B-	2b-	2dd	2bb-
4E-	.	4E-	.	.	.	.	.	.	.	.	.	4d	.	.	.
.	.	.	.	.	.	.	.	.	.	.	8qqdd/	.	.	.	.
4F	.	4F	.	4c)	.	.	.	4cc	.	4e-	4cc	4f	4cc	4cc	4aa
!	!	!	!	!	!	!	!	!LO:LB:g=original	!	!	!	!	!	!	!
=11	=11	=11	=11	=11	=11	=11	=11	=11	=11	=11	=11	=11	=11	=11	=11
2BB-	.	2BB-	-sis.	2d	-sis.	2f	-sis.	2b-	-sis.	2d	2b-	2d	2b-	2dd	2bb-
2r	.	2r	.	2r	.	2r	.	2r	.	2r	2r	2r	2r	2r	2r
==	==	==	==	==	==	==	==	==	==	==	==	==	==	==	==
*-	*-	*-	*-	*-	*-	*-	*-	*-	*-	*-	*-	*-	*-	*-	*-
!!!system-decoration: s1,s2,s3,s4,s5,s6,s7,s8,s9,s10,s11
!!!RDF**kern: > = above
!!!AIN: 1 alto 1 bass 2 clars 2 empty 1 organ 1 tenor 2 violn 1 vox
!!!ENC: Anna Matuszewska
!!!END: 2020-03-27
